X:95
T:From Galway to Dublin Town
T:Napoleon Crossing the Rhine
R:hornpipe
S:Jonas Lindholm
H:See also #25
Z:id:hn-hornpipe-95
M:C|
K:Edor
B,D|E2EG EDB,D|GFGB A2GA|Bdgf edBA|GE~E2 D2B,D|
E2EG EDB,D|GFGB A2GA|Bdgf edBA|GEED E2:|
|:(3Bcd|efed B2BA|GFGB d2 (3Bcd|efed BdBA|GE~E2 D2B,D|
E2EG EDB,D|GFGB A2GA|Bdgf edBA|GEED E2:|

